modules/feathericon/icons/gamepad.svg

<?xml version="1.0" encoding="UTF-8"?>
<svg width="14px" height="6px" viewBox="0 0 14 6" version="1.1" xmlns="http://www.w3.org/2000/svg" xmlns:xlink="http://www.w3.org/1999/xlink">
    <!-- Generator: sketchtool 48.1 (47250) - http://www.bohemiancoding.com/sketch -->
    <title>gamepad</title>
    <desc>Created with sketchtool.</desc>
    <defs></defs>
    <g id="devices" stroke="none" stroke-width="1" fill="none" fill-rule="evenodd">
        <g id="gamepad" fill="#000000">
            <path d="M3,0 L11,0 C12.6568542,0 14,1.34314575 14,3 C14,4.65685425 12.6568542,6 11,6 C10.1115002,6 9.31321405,5.61374936 8.76389349,5 L5.23610651,5 C4.68678595,5.61374936 3.88849981,6 3,6 C1.34314575,6 0,4.65685425 0,3 C0,1.34314575 1.34314575,0 3,0 Z M11.5,4 C11.7761424,4 12,3.77614237 12,3.5 C12,3.22385763 11.7761424,3 11.5,3 C11.2238576,3 11,3.22385763 11,3.5 C11,3.77614237 11.2238576,4 11.5,4 Z M12.5,3 C12.7761424,3 13,2.77614237 13,2.5 C13,2.22385763 12.7761424,2 12.5,2 C12.2238576,2 12,2.22385763 12,2.5 C12,2.77614237 12.2238576,3 12.5,3 Z M10,3 C10.5522847,3 11,2.55228475 11,2 C11,1.44771525 10.5522847,1 10,1 C9.44771525,1 9,1.44771525 9,2 C9,2.55228475 9.44771525,3 10,3 Z M4,2 L4,1 L3,1 L3,2 L2,2 L2,3 L3,3 L3,4 L4,4 L4,3 L5,3 L5,2 L4,2 Z" id="Shape"></path>
        </g>
    </g>
</svg>

<svg width="14" height="6" xmlns="http://www.w3.org/2000/svg"><path d="M3 0h8a3 3 0 1 1-2.236 5H5.236A3 3 0 1 1 3 0zm8.5 4a.5.5 0 1 0 0-1 .5.5 0 0 0 0 1zm1-1a.5.5 0 1 0 0-1 .5.5 0 0 0 0 1zM10 3a1 1 0 1 0 0-2 1 1 0 0 0 0 2zM4 2V1H3v1H2v1h1v1h1V3h1V2H4z" fill="#000" fill-rule="evenodd"/></svg>
